src/assets/images/github.svg

<svg
	xmlns="http://www.w3.org/2000/svg"
  width="48"
  height="48"
  viewBox="0 0 110 110">

  <!-- Relative Path -->
  <path
    fill="none"
    stroke="white"
    stroke-width="5"
    stroke-linecap="round"
    stroke-linejoin="round"
    d="
    M 75 105
      v -14
      a 16 16 0 0 0 -5 -13
      a 31.5 31.5 0 0 0 25 -54
      a 22 22 0 0 0 -1 -19
      a 35 35 0 0 0 -19 7
      a 67 67 0 0 0 -35 0
      a 35 35 0 0 0 -19 -7
      a 22 22 0 0 0 -1 19
      a 31.5 31.5 0 0 0 25 54
      a 16 16 0 0 0 -5 13
      v 14

    m 0 -10
      c -15 5 -27 0 -35 -15
    "
  />

  <!-- Absolute Path -->
  <!-- <path
    fill="none"
    stroke="white"
    stroke-width="5"
    stroke-linecap="round"
    stroke-linejoin="round"
    d="
    M 75 105
      V 91
      A 16 16 0 0 0 70 78
      A 31.5 31.5 0 0 0 95 24
      A 22 22 0 0 0 94 5
      A 35 35 0 0 0 75 12
      A 67 67 0 0 0 40 12
      A 35 35 0 0 0 21 5
      A 22 22 0 0 0 20 24
      A 31.5 31.5 0 0 0 45 78
      A 16 16 0 0 0 40 91
      V 105

    M 40 95
      C 25 100 13 95 5 80
    "
  /> -->

  <!-- <line x1="0" x2="110" y1="5" y2="5" stroke="cyan" stroke-width="0.5" /> -->
  <!-- <line x1="0" x2="110" y1="105" y2="105" stroke="cyan" stroke-width="0.5" /> -->
  <!-- <line x1="5" x2="5" y1="0" y2="110" stroke="cyan" stroke-width="0.5" /> -->
  <!-- <line x1="105" x2="105" y1="0" y2="110" stroke="cyan" stroke-width="0.5" /> -->

  <!-- <rect width="110" height="110" fill="none" stroke="#e70fbf" /> -->

</svg>

<svg
	xmlns="http://www.w3.org/2000/svg"
  width="32"
  height="32"
  viewBox="0 0 110 110">

  <path
    fill="none"
    stroke="white"
    stroke-width="5"
    stroke-linecap="round"
    stroke-linejoin="round"
    d="
    M 75 105
      V 91
      A 16 16 0 0 0 70 78
      A 31.5 31.5 0 0 0 95 24
      A 22 22 0 0 0 94 5
      A 35 35 0 0 0 75 12
      A 67 67 0 0 0 40 12
      A 35 35 0 0 0 21 5
      A 22 22 0 0 0 20 24
      A 31.5 31.5 0 0 0 45 78
      A 16 16 0 0 0 40 91
      V 105

    M 40 95
      C 25 100 13 95 5 80
    "
  />

</svg>

<!-- <svg width="32" height="32" viewBox="0 0 110 110"><path fill="none" stroke="white" stroke-width="5" stroke-linecap="round" stroke-linejoin="round" d="M75 105V91A16 16 0 0 0 70 78A31.5 31.5 0 0 0 95 24A22 22 0 0 0 94 5A35 35 0 0 0 75 12A67 67 0 0 0 40 12A35 35 0 0 0 21 5A22 22 0 0 0 20 24A31.5 31.5 0 0 0 45 78A16 16 0 0 0 40 91V105M40 95C25 100 13 95 5 80"/></svg> -->
